X:10
T:No.72 An tSeanchailleach Gallda
C:jig
M:6/8
L:1/8
K:G
Agf edc|BAG Bcd|AAA efg|dBG A2G|
Agf edc|BAG Bcd|ccc efg|dBG A2G:|
A2a aga|bga ged|eaa aga|bga g2d|
e2a aga|bga ged|cde gfe|dBG A2G:|
